icons/syringe-vaccine_fill.svg

<svg width="48" height="48" viewBox="0 0 48 48" fill="none" xmlns="http://www.w3.org/2000/svg">
<path fill-rule="evenodd" clip-rule="evenodd" d="M6.81818 12.8638C6.36631 13.3156 6.36631 14.0483 6.81818 14.5001C7.27005 14.952 8.00267 14.952 8.45454 14.5001L9.27324 13.6814L13.3636 17.7719L10.0909 21.0447C9.63902 21.4966 9.63902 22.2292 10.0909 22.6811C10.5428 23.133 11.2754 23.133 11.7272 22.6811L13.3632 21.0451L16.3181 24H8.37441C7.74469 24 7.14076 24.2528 6.69547 24.7028C6.25019 25.1528 6.00003 25.7632 6.00003 26.3996V29.9983C5.99395 32.7931 6.93225 35.5063 8.65965 37.6887C10.3871 39.8712 12.8 41.3922 15.4992 42C18.1987 41.3925 20.612 39.8717 22.3397 37.6892C23.5568 36.1518 24.3822 34.351 24.7617 32.4438L27.2727 34.9549C28.9502 36.6325 31.4016 37.0645 33.4777 36.2509L34.6362 37.4095C35.242 38.0153 36.1002 38.215 36.8724 38.0086L39.5455 40.6818C39.9974 41.1337 40.73 41.1337 41.1818 40.6818C41.6337 40.2299 41.6337 39.4973 41.1818 39.0454L38.5083 36.3718C38.7142 35.5999 38.5144 34.7422 37.9089 34.1367L36.7504 32.9782C36.9538 32.4591 37.0794 31.9166 37.1271 31.3686C37.163 30.9555 37.1548 30.5392 37.1022 30.1275C36.9457 28.9009 36.3965 27.7148 35.4545 26.7728L21.545 12.863L23.1818 11.2263C23.6336 10.7744 23.6336 10.0418 23.1818 9.58989C22.7299 9.13801 21.9973 9.13801 21.5454 9.58989L18.2727 12.8627L14.1823 8.77223L15 7.95456C15.4518 7.50268 15.4518 6.77004 15 6.31816C14.5481 5.86628 13.8155 5.86628 13.3636 6.31816L6.81818 12.8638ZM26.5467 31.4003L31.9 26.0468L20.1308 14.2773L14.7774 19.6308L19.1465 24H22.6256C23.2553 24 23.8592 24.2528 24.3045 24.7028C24.7498 25.1528 25 25.7632 25 26.3996V29.8536L26.5467 31.4003ZM16.8585 14.2769L12.7681 10.1865L10.6874 12.2672L14.7778 16.3576L16.8585 14.2769ZM35.6707 34.7269C35.6011 34.8043 35.529 34.8804 35.4545 34.9549C35.3799 35.0295 35.3039 35.1016 35.2264 35.1712L36.0504 35.9952C36.1731 36.1179 36.372 36.1179 36.4947 35.9952C36.6174 35.8725 36.6174 35.6736 36.4947 35.5509L35.6707 34.7269ZM33.5364 27.6832L34.0403 28.1872C34.6458 28.7927 35.0033 29.5523 35.1128 30.3398C35.1522 30.6234 35.1595 30.9105 35.1346 31.1954C35.1032 31.5541 35.0209 31.9092 34.8876 32.2489L32.7486 34.3879C31.3898 34.9211 29.785 34.6387 28.6869 33.5406L28.183 33.0367L33.5364 27.6832ZM17 29C17 28.4477 16.5523 28 16 28C15.4477 28 15 28.4477 15 29V31H13C12.4477 31 12 31.4477 12 32C12 32.5522 12.4477 33 13 33H15V35C15 35.5522 15.4477 36 16 36C16.5523 36 17 35.5522 17 35V33H19C19.5523 33 20 32.5522 20 32C20 31.4477 19.5523 31 19 31H17V29Z" fill="black"/>
</svg>

<svg
  xmlns="http://www.w3.org/2000/svg"
  width="24"
  height="24"
  viewBox="0 0 24 24"
  fill="none"
  stroke="currentColor"
  stroke-width="2"
  stroke-linecap="round"
  stroke-linejoin="round"
>
  <path
    fill-rule="evenodd"
    d="M6.818 12.864A1.157 1.157 0 1 0 8.455 14.5l.818-.819 4.09 4.09-3.272 3.274a1.157 1.157 0 0 0 1.636 1.636l1.636-1.636L16.318 24H8.374c-.63 0-1.233.253-1.679.703A2.41 2.41 0 0 0 6 26.4v3.598a12.35 12.35 0 0 0 2.66 7.69A12.12 12.12 0 0 0 15.5 42a12.12 12.12 0 0 0 6.84-4.31 12.3 12.3 0 0 0 2.422-5.246l2.51 2.51a5.79 5.79 0 0 0 6.206 1.297l1.158 1.159a2.31 2.31 0 0 0 2.236.599l2.673 2.673a1.157 1.157 0 1 0 1.637-1.637l-2.674-2.673a2.31 2.31 0 0 0-.6-2.235l-1.158-1.159a5.8 5.8 0 0 0 .352-2.85 5.76 5.76 0 0 0-1.647-3.355l-13.91-13.91 1.637-1.637a1.157 1.157 0 0 0-1.637-1.636l-3.272 3.273-4.09-4.09.817-.818a1.157 1.157 0 0 0-1.636-1.637zM26.547 31.4l5.353-5.353-11.77-11.77-5.353 5.354L19.147 24h3.479c.63 0 1.233.253 1.678.703.446.45.696 1.06.696 1.697v3.454zm-9.689-17.123-4.09-4.09-2.08 2.08 4.09 4.09zm18.813 20.45a6 6 0 0 1-.445.444l.824.824a.314.314 0 1 0 .445-.444zm-2.135-7.044.504.504a3.77 3.77 0 0 1 1.095 3.008 3.8 3.8 0 0 1-.247 1.054l-2.14 2.139a3.79 3.79 0 0 1-4.061-.847l-.504-.504zM17 29a1 1 0 1 0-2 0v2h-2a1 1 0 1 0 0 2h2v2a1 1 0 0 0 2 0v-2h2a1 1 0 0 0 0-2h-2z"
    clip-rule="evenodd"
  />
</svg>
